icons/medicine_mortar.svg

<svg width="48" height="48" viewBox="0 0 48 48" fill="none" xmlns="http://www.w3.org/2000/svg">
<path fill-rule="evenodd" clip-rule="evenodd" d="M37.0137 8.99665C36.5522 8.73021 35.9628 8.87245 35.6737 9.32005L28.7745 20H32.6603L37.5725 10.4163C37.8155 9.94209 37.644 9.36059 37.1826 9.09415L37.0137 8.99665ZM34.9077 20L39.3523 11.3286C40.0815 9.90593 39.567 8.16141 38.1826 7.3621L38.0137 7.2646C36.6292 6.46529 34.8612 6.892 33.9937 8.23481L26.3934 20H8H6V22H7V25C7 30.7841 10.7775 35.6859 16 37.373V41C16 41.5523 16.4477 42 17 42H31C31.5523 42 32 41.5523 32 41V37.373C37.2225 35.6859 41 30.7841 41 25V22H42V20H40H34.9077ZM39 22H9V25C9 31.0751 13.9249 36 20 36H28C34.0751 36 39 31.0751 39 25V22ZM20 38H18V40H30V38H28H20Z" fill="black"/>
</svg>

<svg
  xmlns="http://www.w3.org/2000/svg"
  width="24"
  height="24"
  viewBox="0 0 24 24"
  fill="none"
  stroke="currentColor"
  stroke-width="2"
  stroke-linecap="round"
  stroke-linejoin="round"
>
  <path
    fill-rule="evenodd"
    d="M37.014 8.997a1 1 0 0 0-1.34.323L28.774 20h3.886l4.913-9.584a1 1 0 0 0-.39-1.322zM34.908 20l4.444-8.671a3 3 0 0 0-1.17-3.967l-.168-.097a3 3 0 0 0-4.02.97L26.394 20H6v2h1v3c0 5.784 3.778 10.686 9 12.373V41a1 1 0 0 0 1 1h14a1 1 0 0 0 1-1v-3.627c5.222-1.687 9-6.589 9-12.373v-3h1v-2h-7.092M39 22H9v3c0 6.075 4.925 11 11 11h8c6.075 0 11-4.925 11-11zM20 38h-2v2h12v-2H20"
    clip-rule="evenodd"
  />
</svg>
